src/section/s3/10.svg

<svg width="72" height="73" viewBox="0 0 72 73" fill="none" xmlns="http://www.w3.org/2000/svg">
<path fill-rule="evenodd" clip-rule="evenodd" d="M0 36.5898C0 56.2787 16.1492 72.2983 36 72.2983C55.8484 72.2983 72 56.2787 72 36.5898C72 16.8984 55.8484 0.878906 36 0.878906C16.1492 0.878906 0 16.8984 0 36.5898ZM2.32289 36.5898C2.32289 18.17 17.4311 3.18313 36 3.18313C54.5689 3.18313 69.6795 18.17 69.6795 36.5898C69.6795 55.0095 54.5713 69.9964 36 69.9964C17.4311 69.9964 2.32289 55.0095 2.32289 36.5898ZM31.7645 54.6256H40.2322C42.2954 54.6256 43.9715 52.963 43.9691 50.9234V44.4977H50.4444C52.5053 44.4977 54.1813 42.8351 54.1813 40.7908V32.3912C54.1813 30.3469 52.5053 28.6843 50.4444 28.6843H43.9691V22.2587C43.9691 20.2144 42.2931 18.5518 40.2322 18.5518H31.7645C29.7037 18.5518 28.0276 20.2144 28.0276 22.2587V28.6796H21.5523C19.4915 28.6796 17.8154 30.3422 17.8154 32.3865V40.7862C17.8154 42.8305 19.4915 44.4931 21.5523 44.4931H28.0276V50.9187C28.0276 52.963 29.7037 54.6256 31.7645 54.6256ZM20.136 32.3888C20.136 31.6161 20.771 30.9862 21.5523 30.9862V30.9885H30.3505V22.2587C30.3505 21.4859 30.9855 20.856 31.7669 20.856H40.2346C41.016 20.856 41.651 21.4859 41.651 22.2587V30.9862H50.4491C51.2305 30.9862 51.8655 31.6161 51.8655 32.3888V40.7885C51.8655 41.5613 51.2305 42.1912 50.4491 42.1912H41.651V50.921C41.651 51.6938 41.016 52.3237 40.2346 52.3237H31.7669C30.9855 52.3237 30.3505 51.6938 30.3505 50.921V42.1912H21.5523C20.771 42.1912 20.136 41.5613 20.136 40.7885V32.3888Z" fill="black"/>
</svg>

<?xml version="1.0" encoding="utf-8"?>
<!-- Generator: Adobe Illustrator 27.6.1, SVG Export Plug-In . SVG Version: 6.00 Build 0)  -->
<svg version="1.1" id="圖層_1" xmlns="http://www.w3.org/2000/svg" xmlns:xlink="http://www.w3.org/1999/xlink" x="0px" y="0px"
	 viewBox="0 0 72 73" style="enable-background:new 0 0 72 73;" xml:space="preserve">
<style type="text/css">
	.st0{fill-rule:evenodd;clip-rule:evenodd;fill:#FFFFFF;}
</style>
<path class="st0" d="M0,36.6c0,19.7,16.1,35.7,36,35.7c19.8,0,36-16,36-35.7C72,16.9,55.8,0.9,36,0.9C16.1,0.9,0,16.9,0,36.6z
	 M2.3,36.6C2.3,18.2,17.4,3.2,36,3.2s33.7,15,33.7,33.4C69.7,55,54.6,70,36,70C17.4,70,2.3,55,2.3,36.6z M31.8,54.6h8.5
	c2.1,0,3.7-1.7,3.7-3.7v-6.4h6.5c2.1,0,3.7-1.7,3.7-3.7v-8.4c0-2-1.7-3.7-3.7-3.7H44v-6.4c0-2-1.7-3.7-3.7-3.7h-8.5
	c-2.1,0-3.7,1.7-3.7,3.7v6.4h-6.5c-2.1,0-3.7,1.7-3.7,3.7v8.4c0,2,1.7,3.7,3.7,3.7H28v6.4C28,53,29.7,54.6,31.8,54.6z M20.1,32.4
	c0-0.8,0.6-1.4,1.4-1.4v0h8.8v-8.7c0-0.8,0.6-1.4,1.4-1.4h8.5c0.8,0,1.4,0.6,1.4,1.4V31h8.8c0.8,0,1.4,0.6,1.4,1.4v8.4
	c0,0.8-0.6,1.4-1.4,1.4h-8.8v8.7c0,0.8-0.6,1.4-1.4,1.4h-8.5c-0.8,0-1.4-0.6-1.4-1.4v-8.7h-8.8c-0.8,0-1.4-0.6-1.4-1.4V32.4z"/>
</svg>
